svg/emoji_u1f976.svg

<?xml version="1.0" encoding="UTF-8" standalone="no"?>
<svg
   width="128"
   height="128"
   version="1.1"
   id="svg111"
   sodipodi:docname="emoji_u1f976.svg"
   inkscape:version="1.2.2 (732a01da63, 2022-12-09)"
   xmlns:inkscape="http://www.inkscape.org/namespaces/inkscape"
   xmlns:sodipodi="http://sodipodi.sourceforge.net/DTD/sodipodi-0.dtd"
   xmlns:xlink="http://www.w3.org/1999/xlink"
   xmlns="http://www.w3.org/2000/svg"
   xmlns:svg="http://www.w3.org/2000/svg"
   xmlns:rdf="http://www.w3.org/1999/02/22-rdf-syntax-ns#"
   xmlns:cc="http://creativecommons.org/ns#"
   xmlns:dc="http://purl.org/dc/elements/1.1/">
  <metadata
     id="metadata115">
    <rdf:RDF>
      <cc:Work
         rdf:about="">
        <dc:format>image/svg+xml</dc:format>
        <dc:type
           rdf:resource="http://purl.org/dc/dcmitype/StillImage" />
      </cc:Work>
    </rdf:RDF>
  </metadata>
  <sodipodi:namedview
     pagecolor="#ffffff"
     bordercolor="#666666"
     borderopacity="1"
     objecttolerance="10"
     gridtolerance="10"
     guidetolerance="10"
     inkscape:pageopacity="0"
     inkscape:pageshadow="2"
     inkscape:window-width="1366"
     inkscape:window-height="697"
     id="namedview113"
     showgrid="false"
     inkscape:zoom="2.6074563"
     inkscape:cx="67.11522"
     inkscape:cy="61.746002"
     inkscape:window-x="-8"
     inkscape:window-y="-8"
     inkscape:window-maximized="1"
     inkscape:current-layer="svg111"
     inkscape:showpageshadow="2"
     inkscape:pagecheckerboard="0"
     inkscape:deskcolor="#d1d1d1" />
  <defs
     id="defs15">
    <linearGradient
       id="b">
      <stop
         offset="0"
         stop-color="#1b9cfc"
         id="stop2" />
      <stop
         offset="1"
         stop-color="#e1fc1b"
         id="stop4" />
    </linearGradient>
    <linearGradient
       gradientTransform="matrix(.62521 0 0 -.62521 23.986 135.698)"
       xlink:href="#a"
       id="d"
       x1="95.743"
       y1="70.878"
       x2="95.743"
       y2="82.469"
       gradientUnits="userSpaceOnUse" />
    <linearGradient
       id="a">
      <stop
         offset="0"
         stop-color="#fff"
         id="stop8" />
      <stop
         offset="1"
         stop-color="#fff"
         stop-opacity=".901"
         id="stop10" />
    </linearGradient>
    <linearGradient
       xlink:href="#a"
       id="e"
       gradientUnits="userSpaceOnUse"
       gradientTransform="matrix(.62521 0 0 -.62521 23.986 135.698)"
       x1="95.743"
       y1="96.735"
       x2="95.743"
       y2="81.998" />
    <linearGradient
       xlink:href="#b"
       id="c"
       x1="63.89"
       y1="9.64"
       x2="63.89"
       y2="118.36"
       gradientUnits="userSpaceOnUse" />
  </defs>
  <path
     fill="none"
     d="M.06 0h127.99v128H.06z"
     id="path17" />
  <path
     d="M63.89 9.64C1.58 9.64.1 79.5.1 93.33c0 13.83 28.56 25.03 63.79 25.03 35.24 0 63.79-11.21 63.79-25.03 0-13.83-1.47-83.69-63.79-83.69z"
     id="path19"
     style="fill:#42ade7;fill-opacity:1"
     fill="url(#c)" />
  <circle
     cx="101.268"
     cy="7.897"
     r="1.186"
     fill="#fff"
     stroke-width="3.08"
     paint-order="stroke fill markers"
     id="circle57" />
  <circle
     r="1.186"
     cy="6.116"
     cx="121.421"
     fill="#fff"
     stroke-width="3.08"
     paint-order="stroke fill markers"
     id="circle63" />
  <circle
     cx="8.589"
     cy="7.239"
     r="1.186"
     fill="#fff"
     stroke-width="3.08"
     paint-order="stroke fill markers"
     id="circle67" />
  <g
     id="g4659"
     transform="translate(-0.57527331,-4.695243)">
    <path
       id="path8"
       d="M 95.622371,105.56602 H 33.622366 c -7.7,0 -13.999997,-6.299999 -13.999997,-13.999999 0,-7.7 6.299997,-14 13.999997,-14 h 62.000005 c 7.699999,0 13.999999,6.3 13.999999,14 0,7.7 -6.3,13.999999 -13.999999,13.999999 z"
       style="fill:#ffffff"
       inkscape:connector-curvature="0" />
    <g
       id="g14"
       style="fill:#838383"
       transform="translate(0.62236872,3.9660237)">
      <path
         id="path10"
         d="m 47.44,75.17 h 3.12 v 25 h -3.12 z m -15,0 h 3.12 v 25 h -3.12 z m 60.01,0 h 3.12 v 25 h -3.12 z m -15.01,0 h 3.12 v 25 h -3.12 z m -15,0 h 3.12 v 25 h -3.12 z"
         inkscape:connector-curvature="0"
         style="fill:#2f2f2f;fill-opacity:1" />
      <path
         id="path12"
         d="m 20.49,86.04 h 87.01 v 3.12 H 20.49 Z"
         inkscape:connector-curvature="0"
         style="fill:#2f2f2f;fill-opacity:1" />
    </g>
    <path
       id="path16"
       d="m 95.622371,81.566021 c 5.509999,0 9.999999,4.49 9.999999,10 0,5.51 -4.49,9.999999 -9.999999,9.999999 H 33.622366 c -5.51,0 -10,-4.489999 -10,-9.999999 0,-5.51 4.49,-10 10,-10 h 62.000005 m 0,-4 H 33.622366 c -7.7,0 -13.999997,6.3 -13.999997,14 0,7.7 6.299997,13.999999 13.999997,13.999999 h 62.000005 c 7.699999,0 13.999999,-6.299999 13.999999,-13.999999 0,-7.7 -6.3,-14 -13.999999,-14 z"
       style="fill:#2f2f2f"
       inkscape:connector-curvature="0" />
  </g>
  <path
     d="m 41.808244,64.34862 c -4.49,0.04 -8.17,-4.27 -8.22,-9.62 -0.05,-5.37 3.55,-9.75 8.04,-9.79 4.48,-0.04 8.17,4.27 8.22,9.64 0.05,5.36 -3.55,9.73 -8.04,9.77 z m 44.11,0 c 4.48,-0.01 8.11,-4.36 8.1,-9.71 -0.01,-5.37 -3.66,-9.7 -8.14,-9.69 -4.49,0.01 -8.13,4.36 -8.12,9.73 0.02,5.35 3.67,9.68 8.16,9.67 z"
     id="path21"
     inkscape:connector-curvature="0"
     style="fill:#2f2f2f" />
  <path
     style="fill:#edf6fc;fill-opacity:1;stroke-width:5.66929;stroke-linecap:round"
     d="M 42.183161,4.142691 C 22.280615,5.7433579 5.6476855,14.588818 5.6476855,29.138249 c 0,4.456507 2.5084079,7.396515 8.1855205,7.396515 9.024832,0 11.787087,-8.128261 27.870819,-11.098729 17.396945,-3.213002 31.639663,-3.388435 31.639663,-13.752423 0,-9.4229222 -15.149055,-8.8286473 -31.160527,-7.540921 z"
     id="path7645"
     sodipodi:nodetypes="ssssss" />
  <g
     style="fill:#d4e9f7;fill-opacity:1"
     id="g18"
     transform="matrix(1.3483543,0,0,1.3483543,-62.140813,-93.874555)">
    <path
       id="path12-7"
       d="m 70.52,103.89 c 0.86,1.45 0.63,3.18 -0.51,3.85 -1.14,0.67 -2.76,0.04 -3.62,-1.41 L 57.48,91.2 c -0.86,-1.45 -0.63,-3.18 0.51,-3.85 1.14,-0.67 2.76,-0.04 3.62,1.42 z"
       inkscape:connector-curvature="0"
       style="fill:#d4e9f7;fill-opacity:1" />
    <path
       id="path14"
       d="m 72.76,95.07 c 1.68,-0.02 3.06,1.04 3.08,2.37 0.01,1.32 -1.34,2.41 -3.03,2.42 l -17.56,0.16 c -1.69,0.02 -3.07,-1.04 -3.08,-2.36 -0.01,-1.32 1.34,-2.41 3.04,-2.42 z"
       inkscape:connector-curvature="0"
       style="fill:#d4e9f7;fill-opacity:1" />
    <path
       id="path16-5"
       d="m 66.24,88.72 c 0.83,-1.47 2.44,-2.13 3.59,-1.48 1.15,0.65 1.41,2.37 0.58,3.84 l -8.64,15.29 c -0.83,1.47 -2.44,2.14 -3.59,1.48 -1.15,-0.65 -1.41,-2.37 -0.58,-3.84 z"
       inkscape:connector-curvature="0"
       style="fill:#d4e9f7;fill-opacity:1" />
  </g>
  <g
     style="fill:#d4e9f7;fill-opacity:1"
     id="g18-9"
     transform="matrix(1.6139443,0,0,1.6139443,5.7889339,-95.822036)">
    <path
       id="path12-7-1"
       d="m 70.52,103.89 c 0.86,1.45 0.63,3.18 -0.51,3.85 -1.14,0.67 -2.76,0.04 -3.62,-1.41 L 57.48,91.2 c -0.86,-1.45 -0.63,-3.18 0.51,-3.85 1.14,-0.67 2.76,-0.04 3.62,1.42 z"
       inkscape:connector-curvature="0"
       style="fill:#d4e9f7;fill-opacity:1" />
    <path
       id="path14-2"
       d="m 72.76,95.07 c 1.68,-0.02 3.06,1.04 3.08,2.37 0.01,1.32 -1.34,2.41 -3.03,2.42 l -17.56,0.16 c -1.69,0.02 -3.07,-1.04 -3.08,-2.36 -0.01,-1.32 1.34,-2.41 3.04,-2.42 z"
       inkscape:connector-curvature="0"
       style="fill:#d4e9f7;fill-opacity:1" />
    <path
       id="path16-5-7"
       d="m 66.24,88.72 c 0.83,-1.47 2.44,-2.13 3.59,-1.48 1.15,0.65 1.41,2.37 0.58,3.84 l -8.64,15.29 c -0.83,1.47 -2.44,2.14 -3.59,1.48 -1.15,-0.65 -1.41,-2.37 -0.58,-3.84 z"
       inkscape:connector-curvature="0"
       style="fill:#d4e9f7;fill-opacity:1" />
  </g>
  <g
     style="fill:#d4e9f7;fill-opacity:1"
     id="g18-0"
     transform="translate(26.31291,-77.506764)">
    <path
       id="path12-7-9"
       d="m 70.52,103.89 c 0.86,1.45 0.63,3.18 -0.51,3.85 -1.14,0.67 -2.76,0.04 -3.62,-1.41 L 57.48,91.2 c -0.86,-1.45 -0.63,-3.18 0.51,-3.85 1.14,-0.67 2.76,-0.04 3.62,1.42 z"
       inkscape:connector-curvature="0"
       style="fill:#d4e9f7;fill-opacity:1" />
    <path
       id="path14-3"
       d="m 72.76,95.07 c 1.68,-0.02 3.06,1.04 3.08,2.37 0.01,1.32 -1.34,2.41 -3.03,2.42 l -17.56,0.16 c -1.69,0.02 -3.07,-1.04 -3.08,-2.36 -0.01,-1.32 1.34,-2.41 3.04,-2.42 z"
       inkscape:connector-curvature="0"
       style="fill:#d4e9f7;fill-opacity:1" />
    <path
       id="path16-5-6"
       d="m 66.24,88.72 c 0.83,-1.47 2.44,-2.13 3.59,-1.48 1.15,0.65 1.41,2.37 0.58,3.84 l -8.64,15.29 c -0.83,1.47 -2.44,2.14 -3.59,1.48 -1.15,-0.65 -1.41,-2.37 -0.58,-3.84 z"
       inkscape:connector-curvature="0"
       style="fill:#d4e9f7;fill-opacity:1" />
  </g>
  <g
     style="fill:#d4e9f7;fill-opacity:1"
     id="g18-06"
     transform="matrix(1.8830376,0,0,1.8830376,-98.620733,-85.144029)">
    <path
       id="path12-7-2"
       d="m 70.52,103.89 c 0.86,1.45 0.63,3.18 -0.51,3.85 -1.14,0.67 -2.76,0.04 -3.62,-1.41 L 57.48,91.2 c -0.86,-1.45 -0.63,-3.18 0.51,-3.85 1.14,-0.67 2.76,-0.04 3.62,1.42 z"
       inkscape:connector-curvature="0"
       style="fill:#d4e9f7;fill-opacity:1" />
    <path
       id="path14-61"
       d="m 72.76,95.07 c 1.68,-0.02 3.06,1.04 3.08,2.37 0.01,1.32 -1.34,2.41 -3.03,2.42 l -17.56,0.16 c -1.69,0.02 -3.07,-1.04 -3.08,-2.36 -0.01,-1.32 1.34,-2.41 3.04,-2.42 z"
       inkscape:connector-curvature="0"
       style="fill:#d4e9f7;fill-opacity:1" />
    <path
       id="path16-5-8"
       d="m 66.24,88.72 c 0.83,-1.47 2.44,-2.13 3.59,-1.48 1.15,0.65 1.41,2.37 0.58,3.84 l -8.64,15.29 c -0.83,1.47 -2.44,2.14 -3.59,1.48 -1.15,-0.65 -1.41,-2.37 -0.58,-3.84 z"
       inkscape:connector-curvature="0"
       style="fill:#d4e9f7;fill-opacity:1" />
  </g>
</svg>

<?xml version="1.0" encoding="UTF-8" standalone="no"?>
<!DOCTYPE svg PUBLIC "-//W3C//DTD SVG 1.1//EN" "http://www.w3.org/Graphics/SVG/1.1/DTD/svg11.dtd">
<svg width="100%" height="100%" viewBox="0 0 128 128" version="1.1" xmlns="http://www.w3.org/2000/svg" xmlns:xlink="http://www.w3.org/1999/xlink" xml:space="preserve" xmlns:serif="http://www.serif.com/" style="fill-rule:evenodd;clip-rule:evenodd;stroke-linejoin:round;stroke-miterlimit:2;">
    <rect id="path17" x="0.06" y="0" width="127.99" height="128" style="fill:none;fill-rule:nonzero;"/>
    <path id="path19" d="M63.89,9.64C1.58,9.64 0.1,79.5 0.1,93.33C0.1,107.16 28.66,118.36 63.89,118.36C99.13,118.36 127.68,107.15 127.68,93.33C127.68,79.5 126.21,9.64 63.89,9.64Z" style="fill:url(#_Linear1);fill-rule:nonzero;"/>
    <circle id="circle57" cx="101.268" cy="7.897" r="1.186" style="fill:white;"/>
    <circle id="circle63" cx="121.421" cy="6.116" r="1.186" style="fill:white;"/>
    <circle id="circle67" cx="8.589" cy="7.239" r="1.186" style="fill:white;"/>
    <g id="g4659" transform="matrix(1,0,0,1,-0.575273,-4.69524)">
        <g id="path8" transform="matrix(0.887857,0,0,0.887857,7.24695,10.2685)">
            <path d="M95.622,105.566L33.622,105.566C25.922,105.566 19.622,99.266 19.622,91.566C19.622,83.866 25.922,77.566 33.622,77.566L95.622,77.566C103.322,77.566 109.622,83.866 109.622,91.566C109.622,99.266 103.322,105.566 95.622,105.566Z" style="fill:white;fill-rule:nonzero;"/>
        </g>
        <g id="g14" transform="matrix(1,0,0,1,0.622369,3.96602)">
            <clipPath id="_clip2">
                <path d="M91.524,100.03L36.476,100.03C29.64,100.03 24.046,94.436 24.046,87.6C24.046,80.763 29.64,75.17 36.476,75.17L91.524,75.17C98.36,75.17 103.954,80.763 103.954,87.6C103.954,94.436 98.36,100.03 91.524,100.03Z" clip-rule="nonzero"/>
            </clipPath>
            <g clip-path="url(#_clip2)">
                <path id="path10" d="M47.44,75.17L50.56,75.17L50.56,100.17L47.44,100.17L47.44,75.17ZM32.44,75.17L35.56,75.17L35.56,100.17L32.44,100.17L32.44,75.17ZM92.45,75.17L95.57,75.17L95.57,100.17L92.45,100.17L92.45,75.17ZM77.44,75.17L80.56,75.17L80.56,100.17L77.44,100.17L77.44,75.17ZM62.44,75.17L65.56,75.17L65.56,100.17L62.44,100.17L62.44,75.17Z" style="fill:rgb(97,97,97);fill-rule:nonzero;"/>
                <rect id="path12" x="20.49" y="86.04" width="87.01" height="3.12" style="fill:rgb(66,66,66);fill-rule:nonzero;"/>
            </g>
        </g>
    </g>
    <path id="path21" d="M41.808,64.349C37.318,64.389 33.638,60.079 33.588,54.729C33.538,49.359 37.138,44.979 41.628,44.939C46.108,44.899 49.798,49.209 49.848,54.579C49.898,59.939 46.298,64.309 41.808,64.349ZM85.918,64.349C90.398,64.339 94.028,59.989 94.018,54.639C94.008,49.269 90.358,44.939 85.878,44.949C81.388,44.959 77.748,49.309 77.758,54.679C77.778,60.029 81.428,64.359 85.918,64.349Z" style="fill:rgb(47,47,47);fill-rule:nonzero;"/>
    <path id="path7645" d="M42.183,4.143C22.281,5.743 5.648,14.589 5.648,29.138C5.648,33.595 8.156,36.535 13.833,36.535C22.858,36.535 25.62,28.407 41.704,25.436C59.101,22.223 73.344,22.048 73.344,11.684C73.344,2.261 58.195,2.855 42.183,4.143Z" style="fill:rgb(237,246,252);fill-rule:nonzero;"/>
    <g id="g18" transform="matrix(1.34835,0,0,1.34835,-62.1408,-93.8746)">
        <path id="path12-7" d="M70.52,103.89C71.38,105.34 71.15,107.07 70.01,107.74C68.87,108.41 67.25,107.78 66.39,106.33L57.48,91.2C56.62,89.75 56.85,88.02 57.99,87.35C59.13,86.68 60.75,87.31 61.61,88.77L70.52,103.89Z" style="fill:rgb(212,233,247);fill-rule:nonzero;"/>
        <path id="path14" d="M72.76,95.07C74.44,95.05 75.82,96.11 75.84,97.44C75.85,98.76 74.5,99.85 72.81,99.86L55.25,100.02C53.56,100.04 52.18,98.98 52.17,97.66C52.16,96.34 53.51,95.25 55.21,95.24L72.76,95.07Z" style="fill:rgb(212,233,247);fill-rule:nonzero;"/>
        <path id="path16-5" d="M66.24,88.72C67.07,87.25 68.68,86.59 69.83,87.24C70.98,87.89 71.24,89.61 70.41,91.08L61.77,106.37C60.94,107.84 59.33,108.51 58.18,107.85C57.03,107.2 56.77,105.48 57.6,104.01L66.24,88.72Z" style="fill:rgb(212,233,247);fill-rule:nonzero;"/>
    </g>
    <g id="g18-9" transform="matrix(1.61394,0,0,1.61394,5.78893,-95.822)">
        <path id="path12-7-1" d="M70.52,103.89C71.38,105.34 71.15,107.07 70.01,107.74C68.87,108.41 67.25,107.78 66.39,106.33L57.48,91.2C56.62,89.75 56.85,88.02 57.99,87.35C59.13,86.68 60.75,87.31 61.61,88.77L70.52,103.89Z" style="fill:rgb(212,233,247);fill-rule:nonzero;"/>
        <path id="path14-2" d="M72.76,95.07C74.44,95.05 75.82,96.11 75.84,97.44C75.85,98.76 74.5,99.85 72.81,99.86L55.25,100.02C53.56,100.04 52.18,98.98 52.17,97.66C52.16,96.34 53.51,95.25 55.21,95.24L72.76,95.07Z" style="fill:rgb(212,233,247);fill-rule:nonzero;"/>
        <path id="path16-5-7" d="M66.24,88.72C67.07,87.25 68.68,86.59 69.83,87.24C70.98,87.89 71.24,89.61 70.41,91.08L61.77,106.37C60.94,107.84 59.33,108.51 58.18,107.85C57.03,107.2 56.77,105.48 57.6,104.01L66.24,88.72Z" style="fill:rgb(212,233,247);fill-rule:nonzero;"/>
    </g>
    <g id="g18-0" transform="matrix(1,0,0,1,26.3129,-77.5068)">
        <path id="path12-7-9" d="M70.52,103.89C71.38,105.34 71.15,107.07 70.01,107.74C68.87,108.41 67.25,107.78 66.39,106.33L57.48,91.2C56.62,89.75 56.85,88.02 57.99,87.35C59.13,86.68 60.75,87.31 61.61,88.77L70.52,103.89Z" style="fill:rgb(212,233,247);fill-rule:nonzero;"/>
        <path id="path14-3" d="M72.76,95.07C74.44,95.05 75.82,96.11 75.84,97.44C75.85,98.76 74.5,99.85 72.81,99.86L55.25,100.02C53.56,100.04 52.18,98.98 52.17,97.66C52.16,96.34 53.51,95.25 55.21,95.24L72.76,95.07Z" style="fill:rgb(212,233,247);fill-rule:nonzero;"/>
        <path id="path16-5-6" d="M66.24,88.72C67.07,87.25 68.68,86.59 69.83,87.24C70.98,87.89 71.24,89.61 70.41,91.08L61.77,106.37C60.94,107.84 59.33,108.51 58.18,107.85C57.03,107.2 56.77,105.48 57.6,104.01L66.24,88.72Z" style="fill:rgb(212,233,247);fill-rule:nonzero;"/>
    </g>
    <g id="g18-06" transform="matrix(1.88304,0,0,1.88304,-98.6207,-85.144)">
        <path id="path12-7-2" d="M70.52,103.89C71.38,105.34 71.15,107.07 70.01,107.74C68.87,108.41 67.25,107.78 66.39,106.33L57.48,91.2C56.62,89.75 56.85,88.02 57.99,87.35C59.13,86.68 60.75,87.31 61.61,88.77L70.52,103.89Z" style="fill:rgb(212,233,247);fill-rule:nonzero;"/>
        <path id="path14-61" d="M72.76,95.07C74.44,95.05 75.82,96.11 75.84,97.44C75.85,98.76 74.5,99.85 72.81,99.86L55.25,100.02C53.56,100.04 52.18,98.98 52.17,97.66C52.16,96.34 53.51,95.25 55.21,95.24L72.76,95.07Z" style="fill:rgb(212,233,247);fill-rule:nonzero;"/>
        <path id="path16-5-8" d="M66.24,88.72C67.07,87.25 68.68,86.59 69.83,87.24C70.98,87.89 71.24,89.61 70.41,91.08L61.77,106.37C60.94,107.84 59.33,108.51 58.18,107.85C57.03,107.2 56.77,105.48 57.6,104.01L66.24,88.72Z" style="fill:rgb(212,233,247);fill-rule:nonzero;"/>
    </g>
    <defs>
        <linearGradient id="_Linear1" x1="0" y1="0" x2="1" y2="0" gradientUnits="userSpaceOnUse" gradientTransform="matrix(6.65718e-15,108.72,-108.72,6.65718e-15,63.89,9.64)"><stop offset="0" style="stop-color:rgb(98,205,234);stop-opacity:1"/><stop offset="0.5" style="stop-color:rgb(138,213,197);stop-opacity:1"/><stop offset="1" style="stop-color:rgb(255,238,88);stop-opacity:1"/></linearGradient>
    </defs>
</svg>
